img/users/seeker.svg

<svg width="160" height="160" viewBox="0 0 160 160" fill="none" xmlns="http://www.w3.org/2000/svg">
<path fill-rule="evenodd" clip-rule="evenodd" d="M80 160C124.183 160 160 124.183 160 80C160 35.8172 124.183 0 80 0C35.8172 0 0 35.8172 0 80C0 124.183 35.8172 160 80 160Z" fill="#328EF5"/>
<path d="M42.1943 43.9504C42.0599 43.8148 41.99 43.6273 42.0012 43.4359C42.0151 43.2445 42.1089 43.0682 42.2593 42.951C64.3846 25.8776 95.299 25.8894 117.435 42.9787L117.499 43.0357C117.756 43.2948 117.757 43.7145 117.501 43.9745L99.078 62.5744C98.8628 62.7916 98.5281 62.8319 98.2683 62.6714C87.0834 55.6799 72.6297 55.6754 61.4418 62.6625C61.1821 62.8227 60.8474 62.7822 60.632 62.5647L42.1943 43.9504Z" fill="white"/>
<path d="M62.5708 102.41C72.3575 112.273 88.2764 112.278 98.0571 102.421C106.304 94.1087 107.761 81.2971 101.599 71.2691C101.485 71.082 101.513 70.8403 101.668 70.6855L114.844 57.406C114.931 57.316 115.051 57.2652 115.176 57.2652C115.3 57.2653 115.42 57.3161 115.507 57.4062L115.549 57.4534C128.979 75.169 127.321 100.403 111.688 116.159C94.3901 133.593 66.2421 133.586 48.9398 116.148C33.3333 100.419 31.6399 75.252 44.9707 57.548C45.0238 57.3942 45.1518 57.2788 45.3094 57.2425C45.467 57.2063 45.632 57.2544 45.7461 57.3699C45.7513 57.3751 45.7591 57.3777 45.763 57.3869L58.945 70.6727C59.0999 70.8288 59.1286 71.0701 59.0154 71.255C52.8545 81.2814 54.3173 94.091 62.5708 102.41Z" fill="white"/>
<path fill-rule="evenodd" clip-rule="evenodd" d="M69.1425 84.9231C71.1817 84.9231 72.8348 83.27 72.8348 81.2308C72.8348 79.1916 71.1817 77.5385 69.1425 77.5385C67.1033 77.5385 65.4502 79.1916 65.4502 81.2308C65.4502 83.27 67.1033 84.9231 69.1425 84.9231Z" fill="white"/>
<path fill-rule="evenodd" clip-rule="evenodd" d="M91.4618 84.9231C93.501 84.9231 95.1541 83.27 95.1541 81.2308C95.1541 79.1916 93.501 77.5385 91.4618 77.5385C89.4226 77.5385 87.7695 79.1916 87.7695 81.2308C87.7695 83.27 89.4226 84.9231 91.4618 84.9231Z" fill="white"/>
</svg>

<svg width="160" height="160" viewBox="0 0 160 160" fill="none" xmlns="http://www.w3.org/2000/svg"><path fill-rule="evenodd" clip-rule="evenodd" d="M80 160c44.183 0 80-35.817 80-80S124.183 0 80 0 0 35.817 0 80s35.817 80 80 80z" fill="#328EF5"/><path d="M42.194 43.95a.675.675 0 01-.193-.514.677.677 0 01.258-.485c22.126-17.073 53.04-17.062 75.176.028l.064.057a.668.668 0 01.002.938l-18.423 18.6a.654.654 0 01-.81.097c-11.185-6.991-25.638-6.996-36.826-.008a.654.654 0 01-.81-.098L42.194 43.95z" fill="#fff"/><path d="M62.57 102.41c9.788 9.863 25.706 9.868 35.487.011 8.247-8.312 9.704-21.124 3.542-31.152a.476.476 0 01.069-.584l13.176-13.279a.462.462 0 01.663 0l.042.047c13.43 17.716 11.772 42.95-3.861 58.706-17.298 17.434-45.446 17.427-62.748-.011-15.607-15.729-17.3-40.896-3.97-58.6a.467.467 0 01.775-.178c.006.005.014.008.018.017l13.182 13.286a.476.476 0 01.07.582c-6.16 10.026-4.698 22.836 3.556 31.155z" fill="#fff"/><path fill-rule="evenodd" clip-rule="evenodd" d="M69.142 84.923a3.692 3.692 0 100-7.385 3.692 3.692 0 000 7.385zm22.32 0a3.692 3.692 0 100-7.385 3.692 3.692 0 000 7.385z" fill="#fff"/></svg>
